assets/logo-white.svg

<svg xmlns="http://www.w3.org/2000/svg" width="108" height="29"><path  d="M9.12 28.56c2.613 0 4.64-.587 6.08-1.76 1.44-1.173 2.16-2.747 2.16-4.72v-.24c0-1.787-.64-3.18-1.92-4.18-1.28-1-2.933-1.607-4.96-1.82-1.76-.187-2.973-.42-3.64-.7-.667-.28-1-.74-1-1.38 0-.453.213-.833.64-1.14.427-.307 1.067-.46 1.92-.46.933 0 1.693.207 2.28.62.587.413 1 .98 1.24 1.7l4.56-1.84a8.834 8.834 0 00-.92-1.74c-.4-.6-.92-1.147-1.56-1.64-.64-.493-1.42-.893-2.34-1.2-.92-.307-2.007-.46-3.26-.46-.96 0-1.893.133-2.8.4a7.473 7.473 0 00-2.4 1.18 6.193 6.193 0 00-1.68 1.9c-.427.747-.64 1.613-.64 2.6v.24c0 1.893.66 3.327 1.98 4.3 1.32.973 3.1 1.553 5.34 1.74.827.08 1.513.187 2.06.32.547.133.98.3 1.3.5.32.2.54.413.66.64.12.227.18.473.18.74 0 .453-.233.873-.7 1.26-.467.387-1.327.58-2.58.58-1.413 0-2.46-.32-3.14-.96-.68-.64-1.127-1.387-1.34-2.24L0 22.32c.133.693.393 1.407.78 2.14.387.733.94 1.4 1.66 2 .72.6 1.627 1.1 2.72 1.5 1.093.4 2.413.6 3.96.6zm22.454 0c2.827 0 5.087-.72 6.78-2.16 1.694-1.44 2.767-3.333 3.22-5.68l-4.96-1.24c-.24 1.307-.766 2.347-1.58 3.12-.813.773-1.993 1.16-3.54 1.16-.72 0-1.4-.113-2.04-.34a4.704 4.704 0 01-1.68-1.02c-.48-.453-.86-1.02-1.14-1.7-.28-.68-.42-1.46-.42-2.34v-.24c0-.88.14-1.673.42-2.38.28-.707.66-1.307 1.14-1.8a5.005 5.005 0 011.68-1.14 5.25 5.25 0 012.04-.4c1.547 0 2.747.427 3.6 1.28.854.853 1.36 1.867 1.52 3.04l4.96-1.28c-.453-2.347-1.54-4.24-3.26-5.68-1.72-1.44-3.966-2.16-6.74-2.16-1.44 0-2.793.24-4.06.72a9.726 9.726 0 00-3.32 2.08c-.946.907-1.686 2-2.22 3.28-.533 1.28-.8 2.72-.8 4.32v.48c0 1.6.267 3.027.8 4.28.534 1.253 1.267 2.307 2.2 3.16.934.853 2.034 1.507 3.3 1.96 1.267.453 2.634.68 4.1.68zm22.455 0c1.36 0 2.66-.227 3.9-.68a9.997 9.997 0 003.3-1.98c.96-.867 1.72-1.933 2.28-3.2.56-1.267.84-2.727.84-4.38v-.48c0-1.627-.28-3.073-.84-4.34-.56-1.267-1.32-2.34-2.28-3.22a9.827 9.827 0 00-3.3-2c-1.24-.453-2.54-.68-3.9-.68-1.36 0-2.66.227-3.9.68a9.827 9.827 0 00-3.3 2c-.96.88-1.72 1.953-2.28 3.22-.56 1.267-.84 2.713-.84 4.34v.48c0 1.653.28 3.113.84 4.38.56 1.267 1.32 2.333 2.28 3.2a9.997 9.997 0 003.3 1.98c1.24.453 2.54.68 3.9.68zm0-4.8c-.72 0-1.4-.12-2.04-.36-.64-.24-1.2-.587-1.68-1.04a4.911 4.911 0 01-1.14-1.66c-.28-.653-.42-1.393-.42-2.22v-.8c0-.827.14-1.567.42-2.22.28-.653.66-1.207 1.14-1.66.48-.453 1.04-.8 1.68-1.04.64-.24 1.32-.36 2.04-.36s1.4.12 2.04.36c.64.24 1.2.587 1.68 1.04.48.453.86 1.007 1.14 1.66.28.653.42 1.393.42 2.22v.8c0 .827-.14 1.567-.42 2.22a4.911 4.911 0 01-1.14 1.66c-.48.453-1.04.8-1.68 1.04-.64.24-1.32.36-2.04.36zm22.694 4.8c1.36 0 2.66-.227 3.9-.68a9.997 9.997 0 003.3-1.98c.96-.867 1.72-1.933 2.28-3.2.56-1.267.84-2.727.84-4.38v-.48c0-1.627-.28-3.073-.84-4.34-.56-1.267-1.32-2.34-2.28-3.22a9.827 9.827 0 00-3.3-2c-1.24-.453-2.54-.68-3.9-.68-1.36 0-2.66.227-3.9.68a9.827 9.827 0 00-3.3 2c-.96.88-1.72 1.953-2.28 3.22-.56 1.267-.84 2.713-.84 4.34v.48c0 1.653.28 3.113.84 4.38.56 1.267 1.32 2.333 2.28 3.2a9.997 9.997 0 003.3 1.98c1.24.453 2.54.68 3.9.68zm0-4.8c-.72 0-1.4-.12-2.04-.36-.64-.24-1.2-.587-1.68-1.04a4.911 4.911 0 01-1.14-1.66c-.28-.653-.42-1.393-.42-2.22v-.8c0-.827.14-1.567.42-2.22.28-.653.66-1.207 1.14-1.66.48-.453 1.04-.8 1.68-1.04.64-.24 1.32-.36 2.04-.36s1.4.12 2.04.36c.64.24 1.2.587 1.68 1.04.48.453.86 1.007 1.14 1.66.28.653.42 1.393.42 2.22v.8c0 .827-.14 1.567-.42 2.22a4.911 4.911 0 01-1.14 1.66c-.48.453-1.04.8-1.68 1.04-.64.24-1.32.36-2.04.36zM107.097 28v-4.8h-5.36c-.72 0-1.08-.4-1.08-1.2v-9.04h7.16v-4.8h-7.16V0h-5.04v8.16h-5.88v4.8h5.88v11.92c0 .907.287 1.653.86 2.24.573.587 1.313.88 2.22.88h8.4z" /></svg>

<?xml version="1.0" encoding="UTF-8"?>
<svg width="108px" height="29px" viewBox="0 0 108 29" version="1.1" xmlns="http://www.w3.org/2000/svg" xmlns:xlink="http://www.w3.org/1999/xlink">
    <title>Group</title>
    <g id="Page-1" stroke="none" stroke-width="1" fill="none" fill-rule="evenodd">
        <g id="Group" fill="#FFFFFF" fill-rule="nonzero">
            <path d="M9.12,28.56 C11.733,28.56 13.76,27.973 15.2,26.8 C16.64,25.627 17.36,24.053 17.36,22.08 L17.36,21.84 C17.36,20.053 16.72,18.66 15.44,17.66 C14.16,16.66 12.507,16.053 10.48,15.84 C8.72,15.653 7.507,15.42 6.84,15.14 C6.173,14.86 5.84,14.4 5.84,13.76 C5.84,13.307 6.053,12.927 6.48,12.62 C6.907,12.313 7.547,12.16 8.4,12.16 C9.333,12.16 10.093,12.367 10.68,12.78 C11.267,13.193 11.68,13.76 11.92,14.48 L16.48,12.64 C16.2391055,12.0275409 15.9305241,11.4439193 15.56,10.9 C15.16,10.3 14.64,9.753 14,9.26 C13.36,8.767 12.58,8.367 11.66,8.06 C10.74,7.753 9.653,7.6 8.4,7.6 C7.44,7.6 6.507,7.733 5.6,8 C4.73555373,8.24581897 3.92253707,8.64555216 3.2,9.18 C2.51492334,9.69065552 1.94293055,10.3375521 1.52,11.08 C1.093,11.827 0.88,12.693 0.88,13.68 L0.88,13.92 C0.88,15.813 1.54,17.247 2.86,18.22 C4.18,19.193 5.96,19.773 8.2,19.96 C9.027,20.04 9.713,20.147 10.26,20.28 C10.807,20.413 11.24,20.58 11.56,20.78 C11.88,20.98 12.1,21.193 12.22,21.42 C12.34,21.647 12.4,21.893 12.4,22.16 C12.4,22.613 12.167,23.033 11.7,23.42 C11.233,23.807 10.373,24 9.12,24 C7.707,24 6.66,23.68 5.98,23.04 C5.3,22.4 4.853,21.653 4.64,20.8 L0,22.32 C0.133,23.013 0.393,23.727 0.78,24.46 C1.167,25.193 1.72,25.86 2.44,26.46 C3.16,27.06 4.067,27.56 5.16,27.96 C6.253,28.36 7.573,28.56 9.12,28.56 L9.12,28.56 Z M31.574,28.56 C34.401,28.56 36.661,27.84 38.354,26.4 C40.048,24.96 41.121,23.067 41.574,20.72 L36.614,19.48 C36.374,20.787 35.848,21.827 35.034,22.6 C34.221,23.373 33.041,23.76 31.494,23.76 C30.774,23.76 30.094,23.647 29.454,23.42 C28.8284261,23.202086 28.2559321,22.8545004 27.774,22.4 C27.294,21.947 26.914,21.38 26.634,20.7 C26.354,20.02 26.214,19.24 26.214,18.36 L26.214,18.12 C26.214,17.24 26.354,16.447 26.634,15.74 C26.914,15.033 27.294,14.433 27.774,13.94 C28.2502365,13.4492162 28.8219983,13.061235 29.454,12.8 C30.1005405,12.5320237 30.7941357,12.3960246 31.494,12.4 C33.041,12.4 34.241,12.827 35.094,13.68 C35.948,14.533 36.454,15.547 36.614,16.72 L41.574,15.44 C41.121,13.093 40.034,11.2 38.314,9.76 C36.594,8.32 34.348,7.6 31.574,7.6 C30.134,7.6 28.781,7.84 27.514,8.32 C26.2777025,8.78095885 25.148123,9.48864719 24.194,10.4 C23.248,11.307 22.508,12.4 21.974,13.68 C21.441,14.96 21.174,16.4 21.174,18 L21.174,18.48 C21.174,20.08 21.441,21.507 21.974,22.76 C22.508,24.013 23.241,25.067 24.174,25.92 C25.108,26.773 26.208,27.427 27.474,27.88 C28.741,28.333 30.108,28.56 31.574,28.56 L31.574,28.56 Z M54.029,28.56 C55.389,28.56 56.689,28.333 57.929,27.88 C59.1468537,27.4399542 60.2676167,26.7674964 61.229,25.9 C62.189,25.033 62.949,23.967 63.509,22.7 C64.069,21.433 64.349,19.973 64.349,18.32 L64.349,17.84 C64.349,16.213 64.069,14.767 63.509,13.5 C62.949,12.233 62.189,11.16 61.229,10.28 C60.2719857,9.40179457 59.150366,8.72202506 57.929,8.28 C56.689,7.827 55.389,7.6 54.029,7.6 C52.669,7.6 51.369,7.827 50.129,8.28 C48.907634,8.72202506 47.7860143,9.40179457 46.829,10.28 C45.869,11.16 45.109,12.233 44.549,13.5 C43.989,14.767 43.709,16.213 43.709,17.84 L43.709,18.32 C43.709,19.973 43.989,21.433 44.549,22.7 C45.109,23.967 45.869,25.033 46.829,25.9 C47.7903833,26.7674964 48.9111463,27.4399542 50.129,27.88 C51.369,28.333 52.669,28.56 54.029,28.56 L54.029,28.56 Z M54.029,23.76 C53.309,23.76 52.629,23.64 51.989,23.4 C51.349,23.16 50.789,22.813 50.309,22.36 C49.8184146,21.8913528 49.4302555,21.3261387 49.169,20.7 C48.889,20.047 48.749,19.307 48.749,18.48 L48.749,17.68 C48.749,16.853 48.889,16.113 49.169,15.46 C49.449,14.807 49.829,14.253 50.309,13.8 C50.789,13.347 51.349,13 51.989,12.76 C52.629,12.52 53.309,12.4 54.029,12.4 C54.749,12.4 55.429,12.52 56.069,12.76 C56.709,13 57.269,13.347 57.749,13.8 C58.229,14.253 58.609,14.807 58.889,15.46 C59.169,16.113 59.309,16.853 59.309,17.68 L59.309,18.48 C59.309,19.307 59.169,20.047 58.889,20.7 C58.6277445,21.3261387 58.2395854,21.8913528 57.749,22.36 C57.269,22.813 56.709,23.16 56.069,23.4 C55.429,23.64 54.749,23.76 54.029,23.76 Z M76.723,28.56 C78.083,28.56 79.383,28.333 80.623,27.88 C81.8408537,27.4399542 82.9616167,26.7674964 83.923,25.9 C84.883,25.033 85.643,23.967 86.203,22.7 C86.763,21.433 87.043,19.973 87.043,18.32 L87.043,17.84 C87.043,16.213 86.763,14.767 86.203,13.5 C85.643,12.233 84.883,11.16 83.923,10.28 C82.9659857,9.40179457 81.844366,8.72202506 80.623,8.28 C79.383,7.827 78.083,7.6 76.723,7.6 C75.363,7.6 74.063,7.827 72.823,8.28 C71.601634,8.72202506 70.4800143,9.40179457 69.523,10.28 C68.563,11.16 67.803,12.233 67.243,13.5 C66.683,14.767 66.403,16.213 66.403,17.84 L66.403,18.32 C66.403,19.973 66.683,21.433 67.243,22.7 C67.803,23.967 68.563,25.033 69.523,25.9 C70.4843833,26.7674964 71.6051463,27.4399542 72.823,27.88 C74.063,28.333 75.363,28.56 76.723,28.56 L76.723,28.56 Z M76.723,23.76 C76.003,23.76 75.323,23.64 74.683,23.4 C74.043,23.16 73.483,22.813 73.003,22.36 C72.5124146,21.8913528 72.1242555,21.3261387 71.863,20.7 C71.583,20.047 71.443,19.307 71.443,18.48 L71.443,17.68 C71.443,16.853 71.583,16.113 71.863,15.46 C72.143,14.807 72.523,14.253 73.003,13.8 C73.483,13.347 74.043,13 74.683,12.76 C75.323,12.52 76.003,12.4 76.723,12.4 C77.443,12.4 78.123,12.52 78.763,12.76 C79.403,13 79.963,13.347 80.443,13.8 C80.923,14.253 81.303,14.807 81.583,15.46 C81.863,16.113 82.003,16.853 82.003,17.68 L82.003,18.48 C82.003,19.307 81.863,20.047 81.583,20.7 C81.3217445,21.3261387 80.9335854,21.8913528 80.443,22.36 C79.963,22.813 79.403,23.16 78.763,23.4 C78.123,23.64 77.443,23.76 76.723,23.76 Z M107.097,28 L107.097,23.2 L101.737,23.2 C101.017,23.2 100.657,22.8 100.657,22 L100.657,12.96 L107.817,12.96 L107.817,8.16 L100.657,8.16 L100.657,0 L95.617,0 L95.617,8.16 L89.737,8.16 L89.737,12.96 L95.617,12.96 L95.617,24.88 C95.617,25.787 95.904,26.533 96.477,27.12 C97.05,27.707 97.79,28 98.697,28 L107.097,28 Z" id="Shape"></path>
        </g>
    </g>
</svg>
